packages/blockchain-info-components/src/Images/img/exchange-logo.svg

<svg fill="none" height="40" viewBox="0 0 197 40" width="197" xmlns="http://www.w3.org/2000/svg"><g fill="#00b6c7"><path d="m0 30.9132h20.2264v-4.6943h-14.6264v-8.4378h13.4642v-4.6943h-13.4642v-8.39246h14.5057v-4.69434h-20.1057z"/><path d="m30.0453 7.7283h-5.7962l6.883 11.5925-7.0642 11.5924h5.7963l4.8603-8.3472 4.9057 8.3472h5.7509l-7.1094-11.5924 6.9887-11.5925h-5.7811l-4.7548 8.5585z"/><path d="m58.7283 31.366c5.8264 0 9.5396-3.4566 9.9321-8.3773h-5.2227c-.4679 2.4905-2.2641 3.9245-4.6641 3.9245-3.4113 0-5.6151-2.8528-5.6151-7.5924 0-4.6793 2.2491-7.4868 5.6151-7.4868 2.6264 0 4.2415 1.6905 4.6641 3.9245h5.2227c-.3774-5.0264-4.3019-8.33208-9.9623-8.33208-6.7924 0-11.0792 4.90568-11.0792 11.98488 0 7.0189 4.1811 11.9547 11.1094 11.9547z"/><path d="m78.6113 17.3283c0-3.3509 2.0831-5.283 5.0114-5.283 2.8679 0 4.5584 1.8264 4.5584 4.9509v13.917h5.4642v-14.7623c0-5.6-3.1698-8.72448-7.9849-8.72448-3.5623 0-5.8264 1.61509-6.8981 4.24148h-.2717v-11.6679h-5.3434v30.9132h5.4641z"/><path d="m105.887 31.3811c3.638 0 5.811-1.7056 6.807-3.6528h.181v3.1849h5.253v-15.517c0-6.12828-4.996-7.96978-9.419-7.96978-4.875 0-8.618 2.17358-9.826 6.39998l5.102.7245c.543-1.5849 2.083-2.9434 4.755-2.9434 2.535 0 3.924 1.2982 3.924 3.5774v.0906c0 1.5698-1.645 1.6453-5.736 2.083-4.498.483-8.7997 1.8264-8.7997 7.049 0 4.5585 3.3357 6.9736 7.7587 6.9736zm1.419-4.0151c-2.28 0-3.91-1.0415-3.91-3.049 0-2.0981 1.827-2.9736 4.272-3.3208 1.434-.1962 4.302-.5585 5.011-1.132v2.732c0 2.5812-2.083 4.7698-5.373 4.7698z"/><path d="m129.087 17.3283c0-3.3509 2.022-5.283 4.905-5.283 2.823 0 4.514 1.8566 4.514 4.9509v13.917h5.464v-14.7623c.015-5.5547-3.155-8.72448-7.94-8.72448-3.472 0-5.856 1.66037-6.913 4.24148h-.272v-3.9396h-5.222v23.1849h5.464z"/><path d="m159.608 40c6.264 0 10.883-2.8679 10.883-8.7094v-23.5623h-5.389v3.834h-.302c-.83-1.67551-2.566-4.13588-6.657-4.13588-5.358 0-9.569 4.19618-9.569 11.81888 0 7.5622 4.211 11.3358 9.554 11.3358 3.97 0 5.827-2.1283 6.672-3.8339h.272v4.3924c0 3.3208-2.264 4.7246-5.374 4.7246-3.29 0-4.74-1.5548-5.404-2.8227l-4.92 1.1925c.996 3.1547 4.332 5.766 10.234 5.766zm.045-13.7057c-3.608 0-5.51-2.8075-5.51-7.0792 0-4.2113 1.872-7.3057 5.51-7.3057 3.517 0 5.449 2.9132 5.449 7.3057 0 4.4226-1.962 7.0792-5.449 7.0792z"/><path d="m186.355 31.366c5.404 0 9.117-2.6415 10.083-6.6717l-5.102-.5735c-.74 1.9622-2.551 2.9886-4.906 2.9886-3.532 0-5.872-2.3245-5.917-6.2943h16.151v-1.6755c0-8.1358-4.89-11.71318-10.596-11.71318-6.642 0-10.974 4.87548-10.974 12.03018 0 7.2755 4.272 11.9094 11.261 11.9094zm-5.827-14.2339c.166-2.9585 2.355-5.4491 5.615-5.4491 3.14 0 5.253 2.2944 5.283 5.4491z"/></g></svg>

<svg width="197" height="40" viewBox="0 0 197 40" fill="none" xmlns="http://www.w3.org/2000/svg">
<path d="M0 30.9132H20.2264V26.2189H5.6V17.7811H19.0642V13.0868H5.6V4.69434H20.1057V0H0V30.9132Z" fill="#00B6C7"/>
<path d="M30.0453 7.7283H24.2491L31.1321 19.3208L24.0679 30.9132H29.8642L34.7245 22.566L39.6302 30.9132H45.3811L38.2717 19.3208L45.2604 7.7283H39.4793L34.7245 16.2868L30.0453 7.7283Z" fill="#00B6C7"/>
<path d="M58.7283 31.366C64.5547 31.366 68.2679 27.9094 68.6604 22.9887H63.4377C62.9698 25.4792 61.1736 26.9132 58.7736 26.9132C55.3623 26.9132 53.1585 24.0604 53.1585 19.3208C53.1585 14.6415 55.4076 11.834 58.7736 11.834C61.4 11.834 63.0151 13.5245 63.4377 15.7585H68.6604C68.283 10.7321 64.3585 7.42642 58.6981 7.42642C51.9057 7.42642 47.6189 12.3321 47.6189 19.4113C47.6189 26.4302 51.8 31.366 58.7283 31.366Z" fill="#00B6C7"/>
<path d="M78.6113 17.3283C78.6113 13.9774 80.6944 12.0453 83.6227 12.0453C86.4906 12.0453 88.1811 13.8717 88.1811 16.9962V30.9132H93.6453V16.1509C93.6453 10.5509 90.4755 7.42642 85.6604 7.42642C82.0981 7.42642 79.834 9.04151 78.7623 11.6679H78.4906V0H73.1472V30.9132H78.6113V17.3283Z" fill="#00B6C7"/>
<path d="M105.887 31.3811C109.525 31.3811 111.698 29.6755 112.694 27.7283H112.875V30.9132H118.128V15.3962C118.128 9.26792 113.132 7.42642 108.709 7.42642C103.834 7.42642 100.091 9.6 98.883 13.8264L103.985 14.5509C104.528 12.966 106.068 11.6075 108.74 11.6075C111.275 11.6075 112.664 12.9057 112.664 15.1849V15.2755C112.664 16.8453 111.019 16.9208 106.928 17.3585C102.43 17.8415 98.1283 19.1849 98.1283 24.4075C98.1283 28.966 101.464 31.3811 105.887 31.3811ZM107.306 27.366C105.026 27.366 103.396 26.3245 103.396 24.317C103.396 22.2189 105.223 21.3434 107.668 20.9962C109.102 20.8 111.97 20.4377 112.679 19.8642V22.5962C112.679 25.1774 110.596 27.366 107.306 27.366Z" fill="#00B6C7"/>
<path d="M129.087 17.3283C129.087 13.9774 131.109 12.0453 133.992 12.0453C136.815 12.0453 138.506 13.9019 138.506 16.9962V30.9132H143.97V16.1509C143.985 10.5962 140.815 7.42642 136.03 7.42642C132.558 7.42642 130.174 9.08679 129.117 11.6679H128.845V7.7283H123.623V30.9132H129.087V17.3283Z" fill="#00B6C7"/>
<path d="M159.608 40C165.872 40 170.491 37.1321 170.491 31.2906V7.7283H165.102V11.5623H164.8C163.97 9.88679 162.234 7.42642 158.143 7.42642C152.785 7.42642 148.574 11.6226 148.574 19.2453C148.574 26.8075 152.785 30.5811 158.128 30.5811C162.098 30.5811 163.955 28.4528 164.8 26.7472H165.072V31.1396C165.072 34.4604 162.808 35.8642 159.698 35.8642C156.408 35.8642 154.958 34.3094 154.294 33.0415L149.374 34.234C150.37 37.3887 153.706 40 159.608 40ZM159.653 26.2943C156.045 26.2943 154.143 23.4868 154.143 19.2151C154.143 15.0038 156.015 11.9094 159.653 11.9094C163.17 11.9094 165.102 14.8226 165.102 19.2151C165.102 23.6377 163.14 26.2943 159.653 26.2943Z" fill="#00B6C7"/>
<path d="M186.355 31.366C191.759 31.366 195.472 28.7245 196.438 24.6943L191.336 24.1208C190.596 26.083 188.785 27.1094 186.43 27.1094C182.898 27.1094 180.558 24.7849 180.513 20.8151H196.664V19.1396C196.664 11.0038 191.774 7.42642 186.068 7.42642C179.426 7.42642 175.094 12.3019 175.094 19.4566C175.094 26.7321 179.366 31.366 186.355 31.366ZM180.528 17.1321C180.694 14.1736 182.883 11.683 186.143 11.683C189.283 11.683 191.396 13.9774 191.426 17.1321H180.528Z" fill="#00B6C7"/>
</svg>
